X: 41387
T: Tweedside Lasses, The
R: reel
M: 4/4
K: Eminor
D2|:G2 BA G2 D2|EFGE D2 DE|G2 GB d2 Bd|e2 A2 A3 B/A/|
G2 BA G2 D2|EFGE D2 EF|GABe dBAB|1 G2 E2 E2 DF:|2 G2 E2 E3d||
gfga bagf|gfed B2 AG|g2 fg a2 ga|b2 e2 e3d|
gfga bagf|gfed B2 AG|ABce dBAB|G2 E2 E3d|
gfga bagf|gfed B2 AG|g2 fg a2 gb|c'2 e2 e3f|
gbfa efde|BdAF D2 EF|GABa gefd|e2 ED E2||

